icons/bootstrap.svg

<?xml version="1.0" encoding="UTF-8"?>
<svg xmlns="http://www.w3.org/2000/svg" xmlns:xlink="http://www.w3.org/1999/xlink" width="32pt" height="32pt" viewBox="0 0 32 32" version="1.0">
    <g id="surface1">
        <path style=" stroke:none;fill-rule:nonzero;fill:rgb(35.686275%,25.882353%,50.980392%);fill-opacity:1;" d="M 18.925781 16.402344 C 18.339844 16.207031 17.5 16.25 16.40625 16.25 L 12 16.25 L 12 22 L 16.710938 22 C 17.445312 22 17.964844 21.921875 18.261719 21.867188 C 18.785156 21.773438 19.226562 21.589844 19.578125 21.371094 C 19.929688 21.152344 20.21875 20.820312 20.445312 20.402344 C 20.675781 19.980469 20.789062 19.492188 20.789062 18.941406 C 20.789062 18.300781 20.625 17.808594 20.292969 17.335938 C 19.964844 16.859375 19.507812 16.59375 18.925781 16.402344 Z M 18.320312 13.773438 C 18.898438 13.601562 19.335938 13.300781 19.628906 12.898438 C 19.925781 12.5 20.070312 11.992188 20.070312 11.390625 C 20.070312 10.816406 19.933594 10.308594 19.660156 9.875 C 19.386719 9.441406 18.992188 9.273438 18.484375 9.113281 C 17.976562 8.953125 17.101562 9 15.863281 9 L 12 9 L 12 14 L 16.148438 14 C 17.15625 14 17.882812 13.90625 18.320312 13.773438 Z M 31.5 4.65625 C 31.5 2.359375 29.640625 0.5 27.34375 0.5 L 4.40625 0.5 C 2.109375 0.5 0.25 2.359375 0.25 4.65625 L 0.25 27.59375 C 0.25 29.890625 2.109375 31.75 4.40625 31.75 L 27.34375 31.75 C 29.640625 31.75 31.5 29.890625 31.5 27.59375 Z M 22.636719 21.1875 C 22.296875 21.878906 21.875 22.414062 21.375 22.789062 C 20.875 23.164062 20.246094 23.484375 19.488281 23.675781 C 18.734375 23.871094 17.808594 24 16.710938 24 L 9.75 24 L 9.75 6.75 L 16.605469 6.75 C 17.921875 6.75 18.976562 6.902344 19.769531 7.25 C 20.566406 7.597656 21.1875 8.125 21.640625 8.847656 C 22.089844 9.574219 22.316406 10.324219 22.316406 11.117188 C 22.316406 11.851562 22.117188 12.542969 21.714844 13.195312 C 21.316406 13.84375 20.714844 14.367188 19.90625 14.765625 C 20.949219 15.074219 21.75 15.59375 22.308594 16.328125 C 22.871094 17.066406 23.148438 17.933594 23.148438 18.9375 C 23.148438 19.742188 22.980469 20.492188 22.636719 21.1875 Z M 22.636719 21.1875 " />
    </g>
</svg>

<?xml version="1.0" encoding="UTF-8"?>
<svg width="32pt" height="32pt" version="1.0" viewBox="0 0 32 32" xmlns="http://www.w3.org/2000/svg">
    <path
        d="m18.926 16.402c-0.58594-0.19531-1.4258-0.15234-2.5195-0.15234h-4.4062v5.75h4.7109c0.73437 0 1.2539-0.078125 1.5508-0.13281 0.52344-0.09375 0.96484-0.27734 1.3164-0.49609s0.64062-0.55078 0.86719-0.96875c0.23047-0.42188 0.34375-0.91016 0.34375-1.4609 0-0.64062-0.16406-1.1328-0.49609-1.6055-0.32812-0.47656-0.78516-0.74219-1.3672-0.93359zm-0.60547-2.6289c0.57813-0.17188 1.0156-0.47266 1.3086-0.875 0.29688-0.39844 0.44141-0.90625 0.44141-1.5078 0-0.57422-0.13672-1.082-0.41016-1.5156-0.27344-0.43359-0.66797-0.60156-1.1758-0.76172-0.50781-0.16016-1.3828-0.11328-2.6211-0.11328h-3.8633v5h4.1484c1.0078 0 1.7344-0.09375 2.1719-0.22656zm13.18-9.1172c0-2.2969-1.8594-4.1562-4.1562-4.1562h-22.938c-2.2969 0-4.1562 1.8594-4.1562 4.1562v22.938c0 2.2969 1.8594 4.1562 4.1562 4.1562h22.938c2.2969 0 4.1562-1.8594 4.1562-4.1562zm-8.8633 16.531c-0.33984 0.69141-0.76172 1.2266-1.2617 1.6016s-1.1289 0.69531-1.8867 0.88672c-0.75391 0.19531-1.6797 0.32422-2.7773 0.32422h-6.9609v-17.25h6.8555c1.3164 0 2.3711 0.15234 3.1641 0.5 0.79688 0.34766 1.418 0.875 1.8711 1.5977 0.44922 0.72656 0.67578 1.4766 0.67578 2.2695 0 0.73437-0.19922 1.4258-0.60156 2.0781-0.39844 0.64844-1 1.1719-1.8086 1.5703 1.043 0.30859 1.8438 0.82812 2.4023 1.5625 0.5625 0.73828 0.83984 1.6055 0.83984 2.6094 0 0.80469-0.16797 1.5547-0.51172 2.25z"
        fill="#5b4281" />
</svg>
